src/actions/symbolic/save-shot-symbolic.svg

<svg width="16" height="16" version="1.1" xmlns="http://www.w3.org/2000/svg">
 <path d="m7.5 1v9.0859l-2.3281-2.3281-0.70703 0.70703 3.5352 3.5352 3.5352-3.5352-0.70703-0.70703-2.3281 2.3281v-9.0859z" fill="#363636" stroke-width="1.0801"/>
 <path d="m1 8v5c0 1.108 0.892 2 2 2h10c1.108 0 2-0.892 2-2v-5h-1v5c0 0.554-0.446 1-1 1h-10c-0.554 0-1-0.446-1-1v-5h-1z" fill="#363636" stop-color="#000000"/>
</svg>

<svg xmlns="http://www.w3.org/2000/svg" width="16" height="16">
    <path fill="#050505" fill-opacity=".7" d="M7.5 1v9.086L5.172 7.758l-.707.707L8 12l3.535-3.535-.707-.707L8.5 10.086V1z"/>
    <path fill="#050505" fill-opacity=".7" d="M1 8v5c0 1.108.892 2 2 2h10c1.108 0 2-.892 2-2V8h-1v5c0 .554-.446 1-1 1H3c-.554 0-1-.446-1-1V8H1z"/>
</svg>
